X: 07038
T: FRANK'S REEL
C: Bob McQuillen 8 Oct 88
B: Bob's Note Book 7 #38
%R: reel
Z: 2020 John Chambers <jc:trillian.mit.edu>
M: C
L: 1/8
K: D
fe \
| d2dA BAFA | dfab afdf | gfgb afdA | BdAF Egfe |
| d2dA BAFA | dfab afdf | gfgb afdf | gece d2 :|
|: de \
| fdBd AFAd | fdBd A2dB | ABdf edBd | fdAF EGFE |
| DFAB ABdf | edBd fedB | AFAd BGdB | AFEF D2 :|
%%begintext align
%% It's always such fun
%% when I go out to Seattle, WA., for a visit with Frank
%% and Dina Blade - It's a beautiful part of the world, full
%% of good food, nice people, Starbuck's Coffee, and great
%% music to dance to! Frank helps make it on his mandolin & fiddle.
%%endtext

%%sep 1 1 500

%%sep 1 1 500

